app/img/categories__commode.svg

<svg width="100" height="100" viewBox="0 0 100 100" fill="none" xmlns="http://www.w3.org/2000/svg">
<g clip-path="url(#clip0)">
<path d="M93.5451 42.0745H6.45487C5.80774 42.0745 5.28308 41.5499 5.28308 40.9028V15.4306C5.28308 14.7835 5.80774 14.2588 6.45487 14.2588H93.5451C94.1922 14.2588 94.717 14.7835 94.717 15.4306V40.9026C94.7168 41.5499 94.1922 42.0745 93.5451 42.0745ZM7.62684 39.7308H92.3733V16.6025H7.62684V39.7308Z" fill="#1E2E36"/>
<path d="M93.5451 67.5466H6.45487C5.80774 67.5466 5.28308 67.022 5.28308 66.3747V40.9027C5.28308 40.2555 5.80774 39.7307 6.45487 39.7307H93.5451C94.1922 39.7307 94.717 40.2554 94.717 40.9027V66.3747C94.7168 67.022 94.1922 67.5466 93.5451 67.5466ZM7.62684 65.2029H92.3733V42.0746H7.62684V65.2029Z" fill="#1E2E36"/>
<path d="M93.5451 93.0186H6.45487C5.80774 93.0186 5.28308 92.494 5.28308 91.8467V66.3748C5.28308 65.7277 5.80774 65.2029 6.45487 65.2029H93.5451C94.1922 65.2029 94.717 65.7275 94.717 66.3748V91.8468C94.7168 92.494 94.1922 93.0186 93.5451 93.0186ZM7.62684 90.6749H92.3733V67.5466H7.62684V90.6749Z" fill="#1E2E36"/>
<path d="M52.1919 29.3386H47.8081C47.1609 29.3386 46.6361 28.814 46.6361 28.1668C46.6361 27.5197 47.1608 26.9949 47.8081 26.9949H52.1919C52.839 26.9949 53.3638 27.5195 53.3638 28.1668C53.3638 28.8141 52.839 29.3386 52.1919 29.3386Z" fill="#1E2E36"/>
<path d="M52.1919 54.8107H47.8081C47.1609 54.8107 46.6361 54.2861 46.6361 53.6388C46.6361 52.9915 47.1608 52.4668 47.8081 52.4668H52.1919C52.839 52.4668 53.3638 52.9915 53.3638 53.6388C53.3638 54.2861 52.839 54.8107 52.1919 54.8107Z" fill="#1E2E36"/>
<path d="M52.1919 80.2827H47.8081C47.1609 80.2827 46.6361 79.7581 46.6361 79.1108C46.6361 78.4635 47.1608 77.939 47.8081 77.939H52.1919C52.839 77.939 53.3638 78.4636 53.3638 79.1108C53.3638 79.7579 52.839 80.2827 52.1919 80.2827Z" fill="#1E2E36"/>
<path d="M96.875 16.6027H3.12501C1.4 16.6006 0.00202703 15.2027 0 13.4777V10.1062C0.00202703 8.3812 1.4 6.98323 3.12501 6.9812H96.875C98.6 6.98323 99.998 8.3812 100 10.1062V13.4777C99.998 15.2027 98.6 16.6006 96.875 16.6027ZM3.12501 9.32496C2.69375 9.32546 2.34426 9.67496 2.34375 10.1062V13.4777C2.34426 13.9089 2.69375 14.2584 3.12501 14.2589H96.875C97.3062 14.2584 97.6557 13.9089 97.6562 13.4777V10.1062C97.6557 9.67496 97.3062 9.32546 96.875 9.32496H3.12501Z" fill="#1E2E36"/>
</g>
<defs>
<clipPath id="clip0">
<rect width="100" height="100" fill="white"/>
</clipPath>
</defs>
</svg>

<svg width="100" height="100" fill="none" xmlns="http://www.w3.org/2000/svg"><g clip-path="url(#clip0)" fill="#1E2E36"><path d="M93.545 42.075H6.455a1.172 1.172 0 01-1.172-1.172V15.43c0-.647.525-1.172 1.172-1.172h87.09c.647 0 1.172.524 1.172 1.172v25.472c0 .647-.525 1.172-1.172 1.172zM7.627 39.73h84.746V16.602H7.627v23.129z"/><path d="M93.545 67.547H6.455a1.172 1.172 0 01-1.172-1.172V40.903c0-.648.525-1.172 1.172-1.172h87.09c.647 0 1.172.524 1.172 1.172v25.472c0 .647-.525 1.172-1.172 1.172zM7.627 65.203h84.746V42.075H7.627v23.128z"/><path d="M93.545 93.019H6.455a1.172 1.172 0 01-1.172-1.172V66.375c0-.647.525-1.172 1.172-1.172h87.09c.647 0 1.172.525 1.172 1.172v25.472c0 .647-.525 1.172-1.172 1.172zM7.627 90.675h84.746V67.547H7.627v23.128zM52.192 29.339h-4.384a1.172 1.172 0 110-2.344h4.384a1.172 1.172 0 010 2.344zM52.192 54.81h-4.384a1.172 1.172 0 110-2.343h4.384a1.172 1.172 0 010 2.344z"/><path d="M52.192 80.283h-4.384a1.172 1.172 0 110-2.344h4.384a1.172 1.172 0 010 2.344zM96.875 16.603H3.125A3.129 3.129 0 010 13.478v-3.372a3.129 3.129 0 013.125-3.125h93.75A3.129 3.129 0 01100 10.106v3.372a3.129 3.129 0 01-3.125 3.125zM3.125 9.325c-.431 0-.78.35-.781.781v3.372c0 .43.35.78.781.78h93.75c.431 0 .78-.35.781-.78v-3.372c0-.431-.35-.78-.781-.781H3.125z"/></g><defs><clipPath id="clip0"><path fill="#fff" d="M0 0h100v100H0z"/></clipPath></defs></svg>
